X:4
%%NRChange 2026-04-16
T: Anders Flaten nr. 2
T: Pols fra Brekken
O: trad (Rørospols) from Brekken, Norway
R: Pols
M: 9/16
L: 1/16
Q: 3/16=120
K: Dmaj
P: [A]
A|: "D"d3 cA2 B2c | "Bm"d3 df2 e2d | "A"c3 cA2 B2c | "A7"c3 (A3 A2)A |
"Bm"d3 cA2 B2c | "Gmaj7"d3 df2 e2d | "A7"c3 cA2 B2c |[1 "A7"c3 "D"d3- d2 A:| [2 "A7"c3 "D"d3- d3- |
P: [B]
|: "D"d z e f3 fa2 | ^g2e fa2 ^g2f | ede  f2z f2a |  ^g2e  fa2 ^g2f  |
ede "Dm (Bbmaj9/F)"=f2z f2a | g2e  =fa2 g2f | "A7"ed2  cA2 c2d |1 "A7"ec2  "Gm"d3- d3- :|2 "A7"ec2  "Gm"d3- d2 A |
%%text - played AABB...AA
%%text - adapted from an arrangement by Emilia Amper
%%text - NRS chords differ from E. Amper arrangement

